X:1
T:Title
%%score { ( 1 3 ) | ( 2 4 ) }
L:1/8
Q:1/4=100
M:6/8
K:Ab
V:1 treble nm="Grand Piano"
V:3 treble 
V:2 bass 
V:4 bass 
V:1
 [Ec][CE][CE] [DF]2 [Fd] | [Ec]3 [CA]3 | [Ge][Gd][Gc] [GB]2 [Gc] | A6 | [Ec][CE][CE] [DF]2 [Fd] | %5
w: J.~Lincoln~Hall * * * *|||||
 [Ec]3 [CA]3 | z3 .A3 | z3 e3 | e3 c3 | A6 | [B,=D]2 [CE] [_DF]2 [CE] | A3 G3 | d3 B3 | G6 | %14
w: |||||||||
 [CF]2 [CE] [Ec]2 [CA] | E6 | e3 c3 | A6 | A2 A B2 c | e2- [Fe] d2- [Fd] | c3 e3 | B3 e3 | A6- | %23
w: |||||||||
 A6 |] %24
w: |
V:2
 [A,,A,][A,,A,][A,,A,] [A,,A,]2 [A,,A,] | [A,,A,]3 [A,,A,]3 | [E,B,][E,B,][E,B,] [E,D]2 [E,E] | %3
 .[CE]3 z3 | [A,,A,][A,,A,][A,,A,] [A,,A,]2 [A,,A,] | [A,,A,]3 [A,,A,]3 | %6
 [B,,G,][B,,G,][B,,G,] .[B,,F,]2 [B,,A,] | [E,G,]6 | [A,CE]2 [A,C] [A,CE]2 [A,C] | %9
 [A,CE]2 [A,C] [A,C]2 [A,,A,] | [A,,A,]2 [A,,A,] [A,,A,]2 [A,,A,] | [E,CE]2 [E,C] [E,B,E]2 [E,B,] | %12
 [E,G,E]2 [E,G,] [E,G,E]2 [E,G,] | [E,B,D]2 [E,B,] [E,B,]2 [E,G,D] | %14
 [A,,A,]2 [A,,A,] [A,,A,]2 [A,,A,] | [A,,A,]2 [A,,A,] [A,,A,]3 | [A,CE]2 [A,C] [A,CE]2 [A,C] | %17
 [A,CE]2 [A,C] [A,C]2 [A,C_G] | [A,C_G]2 [A,CG] [A,CG]2 [A,CG] | [D,A,]2 [D,A,] [D,A,]2 [D,A,] | %20
 [E,A,E]2 [E,A,] [E,C]2 E, | E,2 E, [E,D]2 [E,D] | [A,C]2 [A,C] [A,D]2 [A,D] | [A,C]6 |] %24
V:3
 x6 | x6 | x6 | z2 F E3 | x6 | x6 | [EB][EB][EB] =D-[B,DG][DF] | E6 | z2 E z2 E | z2 E E2 [CE] | %10
 x6 | z2 E z2 E | z2 E z2 E | z2 D D2 F | x6 | C2 C C3 | z2 E z2 E | z2 E E2 A | x6 | .F3 .F3 | %20
 z2 E A2 [CA] | [B,G]2 [B,G] G2 G | z2 E F2 F | E6 |] %24
V:4
 x6 | x6 | x6 | A,2- [A,-D] [A,C]3 | x6 | x6 | x6 | x6 | x6 | x6 | x6 | x6 | x6 | x6 | x6 | x6 | %16
 x6 | x6 | x6 | x6 | x6 | x6 | x6 | x6 |] %24

